X: 25261
T: Man In The Bog
R: jig
M: 6/8
K: Gmajor
|:D|~G3 dBG|ABc AGE|EDB, DEG|BAG AGE|
~G3 dBG|ABc AGE|EDB, DEG|AGF G2:|
|:d|~g3 fed|ece dBA|BEE dEE|ABc AGE|
~g3 fed|ece dBA|BEE B/c/dB|AGF G2:|

